X: 495
T: Mother Brown's Catt
P: Longways for as many as will
%R: march, reel
B: "The Dancing-Master: Containing Directions and Tunes for Dancing" printed by W. Pearson for John Walsh, London ca. 1709
S: 7: DMDfD http://digital.nls.uk/special-collections-of-printed-music/pageturner.cfm?id=89751228 p.300
Z: 2013 John Chambers <jc:trillian.mit.edu>
N: There is actually no time signature.
M: C|
L: 1/8
K: D
% - - - - - - - - - - - - - - - - - - - - - - - - -
[|\
d2 A4 f2 | e4 A4 | B2 G4 =c2 | A4 F4 |\
G2 E4 A2 | F2 d4 c2 | B2 e4 c2 | d4 f4 |][|\
e2 g4 b2 | g4 b4 | f2 d4 e2 | f4 a4 |\
e2 c4 A2 | d4 f4 | e2B2 (Bcd2) | c2 A4 E2 |
(AB) (AB) (AB) c2 | B2 d4 c2 | (Bc) (Bc) (Bc) d2 | c2 e4 d2 |\
(cd) (cd) (cd) e2 | (de)(de) (fg)a2 | (ba)(gf) (gf) (ed) | d4 A4 |\
F2 A2 (GF)(ED) | D8 |]
% - - - - - - - - - - - - - - - - - - - - - - - - -
%%begintext align
%% The 1. and 2. cu. go Arms quite round, and the 1. cu. cast off, then the 1. cu. are in the 2. cu.
%% place, then the 1. cu. lead down and the 2. up, then the 1. cu. lead through the 2. cu. and cast off into
%% the 2. cu. place :| The 2. cu. goes right and left with the 1. cu. half round, and the 1. cu. are in their
%% own places; the 1. man change places with the 2 wo. and the 1. wo. with the 2. man, then the 1. cu.
%% are in the 2. cu. place, then the 1. cu. slip up and down and up again and cast off and turn, the 2. man
%% and wo. change places at the same time, and so to the end.
%% [DMDfD]
%%endtext
%%sep 1 8 500

%%sep 1 1 500
%%sep 1 1 500
